X:1
T:The Lyrebird Schottische
T:The Lyrebird Schottische
T:Robert Petrick, 1864
C:Robert Petrick, 1864
L:1/8
M:4/4
K:C
V:1 treble 
V:1
"C" C>E G>c e>d c>B |"G7" B>A G>F F2 z2 |"F" A,>C F>A a>g g>f |"C" f>e e>d e2 z2 | %4
"C" C>E G>c e>d d>c |"G7" B>d g>b g2 z2 | B,>D G>c e>d c>B |"C" c2"F" c2"C" c2 z2 | %8
"C" e2 d2 c>B c2 |"F" a2 g2 f2 z2 |"G7" f2 d2 B>G A>B |"C" c>B c>d e2 z2 |"G7" g>^f g2 A2 B2 | %13
"F" A>c f>a"C" g2 z2 |"G" B>d g>b"D7" b>a g>^f |"G" g2 g2"G7" g2 f2 |"C" e2 c2 e2 c2 | %17
 a>g g>^f g2 z2 |"G7" f2 d2 f2 d2 | b>a g>^f g2 =f2 |"C" e2 c2 e2 c2 |"G7" f>e d>c B2 z2 | %22
 B,>D G>B c>B A>B |"C" c2"F" c2"C" c2 z2 |] %24

